X:0688
M:2/4
L:1/16
Q:1/4=104
P:ABA % Aird prints a da capo
K:G
P:A
d2d2 edcB|g2f2`e2d2|d2d2 edcB|edcB B2A2|d2d2 edcB|efgf f2e2|defg egfe| dcBA G4:|
P:B

